public/library/aurora-icon-light.svg

<svg enable-background="new 0 0 236.9 226.1" viewBox="0 0 236.9 226.1" xmlns="http://www.w3.org/2000/svg" xmlns:xlink="http://www.w3.org/1999/xlink"><linearGradient id="a" gradientUnits="userSpaceOnUse" x1="120.283" x2="229.3247" y1="114.1049" y2="114.1049"><stop offset="0" stop-color="#3b8270"/><stop offset="1" stop-color="#305c6e"/></linearGradient><linearGradient id="b" gradientUnits="userSpaceOnUse" x1="6.4424" x2="116.8247" y1="114.1049" y2="114.1049"><stop offset="0" stop-color="#4e7f98"/><stop offset="1" stop-color="#3bc0b5"/></linearGradient><linearGradient id="c" gradientUnits="userSpaceOnUse" x1="6.4424" x2="116.8247" y1="177.7907" y2="177.7907"><stop offset="0" stop-color="#30435c"/><stop offset="1" stop-color="#299aa9"/></linearGradient><linearGradient id="d" gradientUnits="userSpaceOnUse" x1="121.1232" x2="229.3247" y1="176.9844" y2="176.9844"><stop offset="0" stop-color="#2e2c29"/><stop offset="1" stop-color="#323232"/></linearGradient><path d="m235.4 141.5-113.2 83.7c-1.5 1.1-3.7 1.2-5.2.1l-115-81.3c-2.2-1.6-2.7-4.8-.9-6.9l113.1-135.6c1.6-2 4.6-2 6.3 0l115.5 134.8c1.3 1.6 1.1 4-.6 5.2z" fill="#fff4fc"/><path d="m229.3 138.7-107.6 79.5-.6-81-.8-127.2 106.5 125.7z" fill="url(#a)"/><path d="m6.4 140.4 110.4 77.8-2.5-208.2z" fill="url(#b)"/><path d="m115.9 137.4-108.7 2.1-.8.9 110.4 77.8z" fill="url(#c)"/><path d="m121.1 137.2 105.7-1.5 2.5 3-107.6 79.5z" fill="url(#d)"/><path d="m121.1 136.2 105.7-1.5m-110.9 1.7-108.7 2.1m108.2-37.6c-23.4-17.9-33.3-20.7-37-17.7-10.2 8.5 27.6 63.8 12.5 77.7-4.4 4-13.5 4.9-31 6.6-5.4.5-9.9.7-12.8.7m109.7-32.5-35.9-31.4m-23.7-74.6c-.3 4.9-.1 14.6 4.9 25.3 4 8.6 9.5 14.2 13 17.3m85.8 86.4c.9-1.3 12.1-17.8 5.2-33.3-5.1-11.5-17.6-16.8-19.5-17.6-2.5-1.1-2.6-.8-14.3-4.6-7.1-2.4-10.7-3.5-13.8-4.7-4.8-1.8-14.1-5.4-24.7-12.2-3.5-2.2-8-5.4-13.1-9.6" fill="none" stroke="#98c9c0" stroke-miterlimit="10" stroke-width="2"/></svg>

<svg xmlns="http://www.w3.org/2000/svg" viewBox="0 0 236.9 226.1"><linearGradient id="a" x1="120.283" x2="229.325" y1="114.105" y2="114.105" gradientUnits="userSpaceOnUse"><stop offset="0" stop-color="#3b8270"/><stop offset="1" stop-color="#305c6e"/></linearGradient><linearGradient id="b" x1="6.442" x2="116.825" y1="114.105" y2="114.105" gradientUnits="userSpaceOnUse"><stop offset="0" stop-color="#4e7f98"/><stop offset="1" stop-color="#3bc0b5"/></linearGradient><linearGradient id="c" x1="6.442" x2="116.825" y1="177.791" y2="177.791" gradientUnits="userSpaceOnUse"><stop offset="0" stop-color="#30435c"/><stop offset="1" stop-color="#299aa9"/></linearGradient><linearGradient id="d" x1="121.123" x2="229.325" y1="176.984" y2="176.984" gradientUnits="userSpaceOnUse"><stop offset="0" stop-color="#2e2c29"/><stop offset="1" stop-color="#323232"/></linearGradient><path fill="#fff4fc" d="m235.4 141.5-113.2 83.7c-1.5 1.1-3.7 1.2-5.2.1L2 144c-2.2-1.6-2.7-4.8-.9-6.9L114.2 1.5c1.6-2 4.6-2 6.3 0L236 136.3c1.3 1.6 1.1 4-.6 5.2"/><path fill="url(#a)" d="m229.3 138.7-107.6 79.5-.6-81-.8-127.2 106.5 125.7z"/><path fill="url(#b)" d="m6.4 140.4 110.4 77.8L114.3 10z"/><path fill="url(#c)" d="M115.9 137.4 7.2 139.5l-.8.9 110.4 77.8z"/><path fill="url(#d)" d="m121.1 137.2 105.7-1.5 2.5 3-107.6 79.5z"/><path fill="none" stroke="#98c9c0" stroke-miterlimit="10" stroke-width="2" d="m121.1 136.2 105.7-1.5m-110.9 1.7L7.2 138.5m108.2-37.6C92 83 82.1 80.2 78.4 83.2 68.2 91.7 106 147 90.9 160.9c-4.4 4-13.5 4.9-31 6.6-5.4.5-9.9.7-12.8.7m109.7-32.5-35.9-31.4M97.2 29.7c-.3 4.9-.1 14.6 4.9 25.3 4 8.6 9.5 14.2 13 17.3m85.8 86.4c.9-1.3 12.1-17.8 5.2-33.3-5.1-11.5-17.6-16.8-19.5-17.6-2.5-1.1-2.6-.8-14.3-4.6-7.1-2.4-10.7-3.5-13.8-4.7-4.8-1.8-14.1-5.4-24.7-12.2-3.5-2.2-8-5.4-13.1-9.6"/></svg>
